bernoullicharts/pow_x_2_4__bits.svg

<?xml version="1.0" encoding="utf-8" standalone="no"?>
<!DOCTYPE svg PUBLIC "-//W3C//DTD SVG 1.1//EN"
  "http://www.w3.org/Graphics/SVG/1.1/DTD/svg11.dtd">
<!-- Created with matplotlib (https://matplotlib.org/) -->
<svg height="345.6pt" version="1.1" viewBox="0 0 460.8 345.6" width="460.8pt" xmlns="http://www.w3.org/2000/svg" xmlns:xlink="http://www.w3.org/1999/xlink">
 <defs>
  <style type="text/css">
*{stroke-linecap:butt;stroke-linejoin:round;}
  </style>
 </defs>
 <g id="figure_1">
  <g id="patch_1">
   <path d="M 0 345.6 
L 460.8 345.6 
L 460.8 0 
L 0 0 
z
" style="fill:#ffffff;"/>
  </g>
  <g id="axes_1">
   <g id="patch_2">
    <path d="M 57.6 307.584 
L 414.72 307.584 
L 414.72 41.472 
L 57.6 41.472 
z
" style="fill:#ffffff;"/>
   </g>
   <g id="matplotlib.axis_1">
    <g id="xtick_1">
     <g id="line2d_1">
      <defs>
       <path d="M 0 0 
L 0 3.5 
" id="me279400f5a" style="stroke:#000000;stroke-width:0.8;"/>
      </defs>
      <g>
       <use style="stroke:#000000;stroke-width:0.8;" x="73.800255" xlink:href="#me279400f5a" y="307.584"/>
      </g>
     </g>
     <g id="text_1">
      <text style="font-family:DejaVu Sans;font-size:10px;font-style:normal;font-weight:normal;text-anchor:middle;" transform="rotate(-0, 73.800255, 322.182437)" x="73.800255" y="322.182437">0.0</text>
     </g>
    </g>
    <g id="xtick_2">
     <g id="line2d_2">
      <g>
       <use style="stroke:#000000;stroke-width:0.8;" x="138.744153" xlink:href="#me279400f5a" y="307.584"/>
      </g>
     </g>
     <g id="text_2">
      <text style="font-family:DejaVu Sans;font-size:10px;font-style:normal;font-weight:normal;text-anchor:middle;" transform="rotate(-0, 138.744153, 322.182437)" x="138.744153" y="322.182437">0.2</text>
     </g>
    </g>
    <g id="xtick_3">
     <g id="line2d_3">
      <g>
       <use style="stroke:#000000;stroke-width:0.8;" x="203.688051" xlink:href="#me279400f5a" y="307.584"/>
      </g>
     </g>
     <g id="text_3">
      <text style="font-family:DejaVu Sans;font-size:10px;font-style:normal;font-weight:normal;text-anchor:middle;" transform="rotate(-0, 203.688051, 322.182437)" x="203.688051" y="322.182437">0.4</text>
     </g>
    </g>
    <g id="xtick_4">
     <g id="line2d_4">
      <g>
       <use style="stroke:#000000;stroke-width:0.8;" x="268.631949" xlink:href="#me279400f5a" y="307.584"/>
      </g>
     </g>
     <g id="text_4">
      <text style="font-family:DejaVu Sans;font-size:10px;font-style:normal;font-weight:normal;text-anchor:middle;" transform="rotate(-0, 268.631949, 322.182437)" x="268.631949" y="322.182437">0.6</text>
     </g>
    </g>
    <g id="xtick_5">
     <g id="line2d_5">
      <g>
       <use style="stroke:#000000;stroke-width:0.8;" x="333.575847" xlink:href="#me279400f5a" y="307.584"/>
      </g>
     </g>
     <g id="text_5">
      <text style="font-family:DejaVu Sans;font-size:10px;font-style:normal;font-weight:normal;text-anchor:middle;" transform="rotate(-0, 333.575847, 322.182437)" x="333.575847" y="322.182437">0.8</text>
     </g>
    </g>
    <g id="xtick_6">
     <g id="line2d_6">
      <g>
       <use style="stroke:#000000;stroke-width:0.8;" x="398.519745" xlink:href="#me279400f5a" y="307.584"/>
      </g>
     </g>
     <g id="text_6">
      <text style="font-family:DejaVu Sans;font-size:10px;font-style:normal;font-weight:normal;text-anchor:middle;" transform="rotate(-0, 398.519745, 322.182437)" x="398.519745" y="322.182437">1.0</text>
     </g>
    </g>
    <g id="text_7">
     <text style="font-family:DejaVu Sans;font-size:10px;font-style:normal;font-weight:normal;text-anchor:middle;" transform="rotate(-0, 236.16, 335.860562)" x="236.16" y="335.860562">Probability</text>
    </g>
   </g>
   <g id="matplotlib.axis_2">
    <g id="ytick_1">
     <g id="line2d_7">
      <defs>
       <path d="M 0 0 
L -3.5 0 
" id="m0d8f77cbe8" style="stroke:#000000;stroke-width:0.8;"/>
      </defs>
      <g>
       <use style="stroke:#000000;stroke-width:0.8;" x="57.6" xlink:href="#m0d8f77cbe8" y="296.464997"/>
      </g>
     </g>
     <g id="text_8">
      <text style="font-family:DejaVu Sans;font-size:10px;font-style:normal;font-weight:normal;text-anchor:end;" transform="rotate(-0, 50.6, 300.264215)" x="50.6" y="300.264215">0</text>
     </g>
    </g>
    <g id="ytick_2">
     <g id="line2d_8">
      <g>
       <use style="stroke:#000000;stroke-width:0.8;" x="57.6" xlink:href="#m0d8f77cbe8" y="244.935645"/>
      </g>
     </g>
     <g id="text_9">
      <text style="font-family:DejaVu Sans;font-size:10px;font-style:normal;font-weight:normal;text-anchor:end;" transform="rotate(-0, 50.6, 248.734864)" x="50.6" y="248.734864">100</text>
     </g>
    </g>
    <g id="ytick_3">
     <g id="line2d_9">
      <g>
       <use style="stroke:#000000;stroke-width:0.8;" x="57.6" xlink:href="#m0d8f77cbe8" y="193.406293"/>
      </g>
     </g>
     <g id="text_10">
      <text style="font-family:DejaVu Sans;font-size:10px;font-style:normal;font-weight:normal;text-anchor:end;" transform="rotate(-0, 50.6, 197.205512)" x="50.6" y="197.205512">200</text>
     </g>
    </g>
    <g id="ytick_4">
     <g id="line2d_10">
      <g>
       <use style="stroke:#000000;stroke-width:0.8;" x="57.6" xlink:href="#m0d8f77cbe8" y="141.876942"/>
      </g>
     </g>
     <g id="text_11">
      <text style="font-family:DejaVu Sans;font-size:10px;font-style:normal;font-weight:normal;text-anchor:end;" transform="rotate(-0, 50.6, 145.67616)" x="50.6" y="145.67616">300</text>
     </g>
    </g>
    <g id="ytick_5">
     <g id="line2d_11">
      <g>
       <use style="stroke:#000000;stroke-width:0.8;" x="57.6" xlink:href="#m0d8f77cbe8" y="90.34759"/>
      </g>
     </g>
     <g id="text_12">
      <text style="font-family:DejaVu Sans;font-size:10px;font-style:normal;font-weight:normal;text-anchor:end;" transform="rotate(-0, 50.6, 94.146809)" x="50.6" y="94.146809">400</text>
     </g>
    </g>
    <g id="text_13">
     <text style="font-family:DejaVu Sans;font-size:10px;font-style:normal;font-weight:normal;text-anchor:middle;" transform="rotate(-90, 25.432812, 174.528)" x="25.432812" y="174.528">Average Bits Consumed Per Call</text>
    </g>
   </g>
   <g id="line2d_12">
    <path clip-path="url(#p959fa7fe37)" d="M 73.832727 53.568 
L 77.112066 272.698629 
L 80.391405 283.054998 
L 83.670744 287.023789 
L 86.950083 287.23712 
L 90.229421 287.924522 
L 93.50876 288.162587 
L 96.788099 288.67582 
L 100.067438 290.142345 
L 103.346777 290.874062 
L 106.626116 290.371135 
L 109.905455 291.275991 
L 113.184793 291.639788 
L 116.464132 291.234767 
L 119.743471 292.392117 
L 123.02281 292.178785 
L 126.302149 292.560102 
L 129.581488 292.01183 
L 132.860826 292.706446 
L 136.140165 292.593081 
L 139.419504 292.8363 
L 142.698843 293.15372 
L 145.978182 292.999132 
L 149.257521 293.036233 
L 152.53686 293.376327 
L 155.816198 293.351593 
L 159.095537 293.631913 
L 162.374876 293.321706 
L 165.654215 293.253687 
L 168.933554 293.69684 
L 172.212893 293.953456 
L 175.492231 293.829785 
L 178.77157 293.886468 
L 182.050909 293.814327 
L 185.330248 294.129686 
L 188.609587 293.862764 
L 191.888926 294.141023 
L 195.168264 294.132778 
L 198.447603 294.045178 
L 201.726942 294.301794 
L 205.006281 294.13587 
L 208.28562 294.161634 
L 211.564959 294.371874 
L 214.844298 294.365691 
L 218.123636 294.397639 
L 221.402975 294.500698 
L 224.682314 294.449168 
L 227.961653 294.461535 
L 231.240992 294.494514 
L 234.520331 294.570778 
L 237.799669 294.761436 
L 241.079008 294.385272 
L 244.358347 294.579022 
L 247.637686 294.672806 
L 250.917025 294.825333 
L 254.196364 294.727427 
L 257.475702 294.64498 
L 260.755041 294.694448 
L 264.03438 294.675897 
L 267.313719 294.778956 
L 270.593058 294.868617 
L 273.872397 294.810904 
L 277.151736 294.859342 
L 280.431074 294.82018 
L 283.710413 294.839761 
L 286.989752 294.876862 
L 290.269091 295.004655 
L 293.54843 295.039695 
L 296.827769 294.869648 
L 300.107107 294.97889 
L 303.386446 295.096377 
L 306.665785 295.053092 
L 309.945124 295.10153 
L 313.224463 295.081949 
L 316.503802 295.047939 
L 319.78314 295.08401 
L 323.062479 295.183977 
L 326.341818 295.145845 
L 329.621157 295.188099 
L 332.900496 295.146876 
L 336.179835 295.1376 
L 339.459174 295.156151 
L 342.738512 295.24169 
L 346.017851 295.26024 
L 349.29719 295.282913 
L 352.576529 295.33032 
L 355.855868 295.354024 
L 359.135207 295.268485 
L 362.414545 295.341657 
L 365.693884 295.333412 
L 368.973223 295.256118 
L 372.252562 295.309708 
L 375.531901 295.29425 
L 378.81124 295.274668 
L 382.090579 295.377727 
L 385.369917 295.360207 
L 388.649256 295.374635 
L 391.928595 295.405553 
L 395.207934 295.439562 
L 398.487273 295.488 
" style="fill:none;stroke:#1f77b4;stroke-linecap:square;stroke-width:1.5;"/>
   </g>
   <g id="patch_3">
    <path d="M 57.6 307.584 
L 57.6 41.472 
" style="fill:none;stroke:#000000;stroke-linecap:square;stroke-linejoin:miter;stroke-width:0.8;"/>
   </g>
   <g id="patch_4">
    <path d="M 414.72 307.584 
L 414.72 41.472 
" style="fill:none;stroke:#000000;stroke-linecap:square;stroke-linejoin:miter;stroke-width:0.8;"/>
   </g>
   <g id="patch_5">
    <path d="M 57.6 307.584 
L 414.72 307.584 
" style="fill:none;stroke:#000000;stroke-linecap:square;stroke-linejoin:miter;stroke-width:0.8;"/>
   </g>
   <g id="patch_6">
    <path d="M 57.6 41.472 
L 414.72 41.472 
" style="fill:none;stroke:#000000;stroke-linecap:square;stroke-linejoin:miter;stroke-width:0.8;"/>
   </g>
   <g id="text_14">
    <text style="font-family:DejaVu Sans;font-size:12px;font-style:normal;font-weight:normal;text-anchor:middle;" transform="rotate(-0, 236.16, 35.472)" x="236.16" y="35.472">Avg. Bits Consumed by pow(x,2/4) Algorithm</text>
   </g>
   <g id="legend_1">
    <g id="patch_7">
     <path d="M 322.080938 64.150125 
L 407.72 64.150125 
Q 409.72 64.150125 409.72 62.150125 
L 409.72 48.472 
Q 409.72 46.472 407.72 46.472 
L 322.080938 46.472 
Q 320.080938 46.472 320.080938 48.472 
L 320.080938 62.150125 
Q 320.080938 64.150125 322.080938 64.150125 
z
" style="fill:#ffffff;opacity:0.8;stroke:#cccccc;stroke-linejoin:miter;"/>
    </g>
    <g id="line2d_13">
     <path d="M 324.080938 54.570438 
L 344.080938 54.570438 
" style="fill:none;stroke:#1f77b4;stroke-linecap:square;stroke-width:1.5;"/>
    </g>
    <g id="line2d_14"/>
    <g id="text_15">
     <text style="font-family:DejaVu Sans;font-size:10px;font-style:normal;font-weight:normal;text-anchor:start;" transform="rotate(-0, 352.080938, 58.070438)" x="352.080938" y="58.070438">pow(x,2/4)</text>
    </g>
   </g>
  </g>
 </g>
 <defs>
  <clipPath id="p959fa7fe37">
   <rect height="266.112" width="357.12" x="57.6" y="41.472"/>
  </clipPath>
 </defs>
</svg>

<svg height="460.8" viewBox="0 0 460.8 345.6" width="614.4" xmlns="http://www.w3.org/2000/svg" xmlns:xlink="http://www.w3.org/1999/xlink"><defs><style>*{stroke-linecap:butt;stroke-linejoin:round}</style></defs><g id="figure_1"><path d="M0 345.6h460.8V0H0z" fill="#fff" id="patch_1"/><g id="axes_1"><path d="M57.6 307.584h357.12V41.472H57.6z" fill="#fff" id="patch_2"/><g id="matplotlib.axis_1"><g id="xtick_1"><g id="line2d_1"><defs><path d="M0 0v3.5" id="me279400f5a" stroke="#000" stroke-width=".8"/></defs><use x="73.8" xlink:href="#me279400f5a" y="307.584" stroke="#000" stroke-width=".8"/></g><text x="73.8" y="322.182" font-family="DejaVu Sans" font-size="10" font-weight="400" text-anchor="middle" id="text_1">0.0</text></g><g id="xtick_2"><use x="138.744" xlink:href="#me279400f5a" y="307.584" stroke="#000" stroke-width=".8" id="line2d_2"/><text x="138.744" y="322.182" font-family="DejaVu Sans" font-size="10" font-weight="400" text-anchor="middle" id="text_2">0.2</text></g><g id="xtick_3"><use x="203.688" xlink:href="#me279400f5a" y="307.584" stroke="#000" stroke-width=".8" id="line2d_3"/><text x="203.688" y="322.182" font-family="DejaVu Sans" font-size="10" font-weight="400" text-anchor="middle" id="text_3">0.4</text></g><g id="xtick_4"><use x="268.632" xlink:href="#me279400f5a" y="307.584" stroke="#000" stroke-width=".8" id="line2d_4"/><text x="268.632" y="322.182" font-family="DejaVu Sans" font-size="10" font-weight="400" text-anchor="middle" id="text_4">0.6</text></g><g id="xtick_5"><use x="333.576" xlink:href="#me279400f5a" y="307.584" stroke="#000" stroke-width=".8" id="line2d_5"/><text x="333.576" y="322.182" font-family="DejaVu Sans" font-size="10" font-weight="400" text-anchor="middle" id="text_5">0.8</text></g><g id="xtick_6"><use x="398.52" xlink:href="#me279400f5a" y="307.584" stroke="#000" stroke-width=".8" id="line2d_6"/><text x="398.52" y="322.182" font-family="DejaVu Sans" font-size="10" font-weight="400" text-anchor="middle" id="text_6">1.0</text></g><text x="236.16" y="335.861" font-family="DejaVu Sans" font-size="10" font-weight="400" text-anchor="middle" id="text_7">Probability</text></g><g id="matplotlib.axis_2"><g id="ytick_1"><g id="line2d_7"><defs><path d="M0 0h-3.5" id="m0d8f77cbe8" stroke="#000" stroke-width=".8"/></defs><use x="57.6" xlink:href="#m0d8f77cbe8" y="296.465" stroke="#000" stroke-width=".8"/></g><text x="50.6" y="300.264" font-family="DejaVu Sans" font-size="10" font-weight="400" text-anchor="end" id="text_8">0</text></g><g id="ytick_2"><use x="57.6" xlink:href="#m0d8f77cbe8" y="244.936" stroke="#000" stroke-width=".8" id="line2d_8"/><text x="50.6" y="248.735" font-family="DejaVu Sans" font-size="10" font-weight="400" text-anchor="end" id="text_9">100</text></g><g id="ytick_3"><use x="57.6" xlink:href="#m0d8f77cbe8" y="193.406" stroke="#000" stroke-width=".8" id="line2d_9"/><text x="50.6" y="197.206" font-family="DejaVu Sans" font-size="10" font-weight="400" text-anchor="end" id="text_10">200</text></g><g id="ytick_4"><use x="57.6" xlink:href="#m0d8f77cbe8" y="141.877" stroke="#000" stroke-width=".8" id="line2d_10"/><text x="50.6" y="145.676" font-family="DejaVu Sans" font-size="10" font-weight="400" text-anchor="end" id="text_11">300</text></g><g id="ytick_5"><use x="57.6" xlink:href="#m0d8f77cbe8" y="90.348" stroke="#000" stroke-width=".8" id="line2d_11"/><text x="50.6" y="94.147" font-family="DejaVu Sans" font-size="10" font-weight="400" text-anchor="end" id="text_12">400</text></g><text transform="rotate(-90 25.433 174.528)" x="25.433" y="174.528" font-family="DejaVu Sans" font-size="10" font-weight="400" text-anchor="middle" id="text_13">Average Bits Consumed Per Call</text></g><path clip-path="url(#p959fa7fe37)" d="M73.833 53.568l3.28 219.13 3.278 10.357 3.28 3.969 3.28.213 3.278.688 3.28.238 3.28.513 3.278 1.466 3.28.732 3.28-.503 3.278.905 3.28.364 3.28-.405 3.278 1.157 3.28-.213 3.28.381 3.278-.548 3.28.694 3.28-.113 3.279.243 3.279.318 3.28-.155 3.279.037 3.279.34 3.28-.024 3.279.28 3.279-.31 3.28-.068 3.279.443 3.279.256 3.28-.123 3.279.056 3.279-.072 3.28.316 3.279-.267 3.279.278 3.28-.008 3.279-.088 3.279.257 3.28-.166 3.279.026 3.279.21 3.28-.006 3.279.032 3.279.103 3.28-.052 3.279.013 3.279.033 3.28.076 3.279.19 3.279-.376 3.28.194 3.279.094 3.279.152 3.28-.098 3.279-.082 3.279.05 3.28-.02 3.279.104 3.28.09 3.278-.058 3.28.048 3.28-.039 3.278.02 3.28.037 3.28.128 3.278.035 3.28-.17 3.28.109 3.278.117 3.28-.043 3.28.049 3.278-.02 3.28-.034 3.28.036 3.278.1 3.28-.038 3.28.042 3.278-.041 3.28-.01 3.28.02 3.279.085 3.279.018 3.28.023 3.279.047 3.279.024 3.28-.086 3.279.074 3.279-.009 3.28-.077 3.279.054 3.279-.016 3.28-.02 3.279.104 3.279-.018 3.28.015 3.279.03 3.279.035 3.28.048" fill="none" stroke="#1f77b4" stroke-linecap="square" stroke-width="1.5" id="line2d_12"/><path d="M57.6 307.584V41.472" fill="none" stroke="#000" stroke-linecap="square" stroke-width=".8" id="patch_3"/><path d="M414.72 307.584V41.472" fill="none" stroke="#000" stroke-linecap="square" stroke-width=".8" id="patch_4"/><path d="M57.6 307.584h357.12" fill="none" stroke="#000" stroke-linecap="square" stroke-width=".8" id="patch_5"/><path d="M57.6 41.472h357.12" fill="none" stroke="#000" stroke-linecap="square" stroke-width=".8" id="patch_6"/><text x="236.16" y="35.472" font-family="DejaVu Sans" font-size="12" font-weight="400" text-anchor="middle" id="text_14">Avg. Bits Consumed by pow(x,2/4) Algorithm</text><g id="legend_1"><path d="M322.08 64.15h85.64q2 0 2-2V48.472q0-2-2-2h-85.64q-2 0-2 2V62.15q0 2 2 2z" fill="#fff" opacity=".8" stroke="#ccc" id="patch_7"/><path d="M324.08 54.57h20" fill="none" stroke="#1f77b4" stroke-linecap="square" stroke-width="1.5" id="line2d_13"/><text x="352.081" y="58.07" font-family="DejaVu Sans" font-size="10" font-weight="400" id="text_15">pow(x,2/4)</text></g></g></g><defs><clipPath id="p959fa7fe37"><path d="M57.6 41.472h357.12v266.112H57.6z"/></clipPath></defs></svg>
